source/svgs/bowtie/uE004-query-datatable.svg

<svg xmlns="http://www.w3.org/2000/svg" viewBox="0 0 448 448" enable-background="new 0 0 448 448"><path d="M128 256v-32h192v32h-192zm320-256v352h-64v96h-384v-352h64v-96h384zm-96 160h-256v160h256v-160zm0 192h-288v-192h-32v256h320v-64zm64-288h-320v32h288v224h32v-256z"/></svg>

<svg xmlns="http://www.w3.org/2000/svg" viewBox="0 0 448 448"><path d="M128 256v-32h192v32H128zM448 0v352h-64v96H0V96h64V0h384zm-96 160H96v160h256V160zm0 192H64V160H32v256h320v-64zm64-288H96v32h288v224h32V64z"/></svg>
